X:346
T: Falscher Sinn (81a), S. 221
N: T0235
O: Luxemburg
S: Singendes Volk, Esch-Alzette 1937 posth.]
N: Reuland, hhh Gabriel Petry, 1906
R: Liebeslieder]
M: 4/4
L: 1/8
K: G
G2 | E2EEE2GE | E2DDD2
D2 | G2G2BAGA | B4z2
GA | B2d2dcBc | d2e2d2
cc | B2B2A2A2 | G4z2

@@@ Tune index: 8400
